gnome/icons/Varda/apps/scalable/utilities-tweak-tool.svg

<?xml version="1.0" encoding="UTF-8" standalone="no"?>
<svg
   xmlns:dc="http://purl.org/dc/elements/1.1/"
   xmlns:cc="http://creativecommons.org/ns#"
   xmlns:rdf="http://www.w3.org/1999/02/22-rdf-syntax-ns#"
   xmlns:svg="http://www.w3.org/2000/svg"
   xmlns="http://www.w3.org/2000/svg"
   xmlns:sodipodi="http://sodipodi.sourceforge.net/DTD/sodipodi-0.dtd"
   xmlns:inkscape="http://www.inkscape.org/namespaces/inkscape"
   width="64px"
   height="64px"
   viewBox="0 0 64 64"
   version="1.1"
   id="svg25"
   sodipodi:docname="xfce-settings-manager.svg"
   inkscape:version="1.0.2 (e86c870879, 2021-01-15)">
  <metadata
     id="metadata31">
    <rdf:RDF>
      <cc:Work
         rdf:about="">
        <dc:format>image/svg+xml</dc:format>
        <dc:type
           rdf:resource="http://purl.org/dc/dcmitype/StillImage" />
      </cc:Work>
    </rdf:RDF>
  </metadata>
  <defs
     id="defs29" />
  <sodipodi:namedview
     pagecolor="#ffffff"
     bordercolor="#666666"
     borderopacity="1"
     objecttolerance="10"
     gridtolerance="10"
     guidetolerance="10"
     inkscape:pageopacity="0"
     inkscape:pageshadow="2"
     inkscape:window-width="2560"
     inkscape:window-height="1403"
     id="namedview27"
     showgrid="false"
     inkscape:zoom="15.75"
     inkscape:cx="32"
     inkscape:cy="32"
     inkscape:window-x="0"
     inkscape:window-y="0"
     inkscape:window-maximized="1"
     inkscape:current-layer="surface1" />
  <g
     id="surface1">
    <path
       style="fill:#0c0e11;fill-opacity:1;fill-rule:nonzero;stroke:#f5f5f5;stroke-width:0.264583;stroke-linecap:round;stroke-linejoin:round;stroke-miterlimit:4;stroke-opacity:1"
       d="M 80.125,-112.0625 C 58.59375,-88 42.59375,-60.03125 32.71875,-30.125 l 51.9375,51.96875 v 42.3125 L 32.8125,116 c 4.9375,14.8125 11.4375,29.34375 19.5625,43.40625 8.09375,14.0625 17.4375,26.96875 27.8125,38.625 L 151,179.0625 l 36.65625,21.15625 19.03125,70.96875 c 30.84375,6.40625 63.0625,6.5625 94.65625,-0.0625 l 19,-70.90625 L 357,179.0625 l 70.875,19 C 449.40625,174 465.40625,146.03125 475.28125,116.125 L 423.34375,64.15625 V 21.84375 L 475.1875,-30 C 470.25,-44.8125 463.75,-59.34375 455.625,-73.40625 c -8.09375,-14.0625 -17.4375,-26.96875 -27.8125,-38.625 L 357,-93.0625 320.34375,-114.21875 301.3125,-185.1875 c -30.84375,-6.40625 -63.0625,-6.5625 -94.65625,0.0625 l -19,70.90625 L 151,-93.0625 Z m 0,0"
       transform="matrix(0.125,0,0,0.125,0,26.875)"
       id="path2" />
    <path
       style="fill:#0c0e11;fill-opacity:1;fill-rule:nonzero;stroke:none"
       d="m 31.75,11.082031 c 11.691406,0 21.167969,9.476563 21.167969,21.167969 0,11.691406 -9.476563,21.167969 -21.167969,21.167969 -11.691406,0 -21.167969,-9.476563 -21.167969,-21.167969 0,-11.691406 9.476563,-21.167969 21.167969,-21.167969 z m 0,0"
       id="path4" />
    <path
       style="fill:#257b76;fill-opacity:1;fill-rule:nonzero;stroke:none"
       d="m 22.488281,17.699219 c 0.730469,0 1.324219,0.589843 1.324219,1.320312 v 26.460938 c 0,0.730469 -0.59375,1.320312 -1.324219,1.320312 -0.730469,0 -1.320312,-0.589843 -1.320312,-1.320312 V 19.019531 c 0,-0.730469 0.589843,-1.320312 1.320312,-1.320312 z m 0,0"
       id="path6" />
    <path
       style="fill:#733447;fill-opacity:1;fill-rule:nonzero;stroke:none"
       d="m 22.488281,32.25 c 0.730469,0 1.324219,0.59375 1.324219,1.324219 v 11.90625 c 0,0.730469 -0.59375,1.320312 -1.324219,1.320312 -0.730469,0 -1.320312,-0.589843 -1.320312,-1.320312 v -11.90625 c 0,-0.730469 0.589843,-1.324219 1.320312,-1.324219 z m 0,0"
       id="path8" />
    <path
       style="fill:#2e3436;fill-opacity:1;fill-rule:nonzero;stroke:none"
       d="m 22.488281,28.28125 c 2.191407,0 3.96875,1.777344 3.96875,3.96875 0,2.191406 -1.777343,3.96875 -3.96875,3.96875 -2.191406,0 -3.96875,-1.777344 -3.96875,-3.96875 0,-2.191406 1.777344,-3.96875 3.96875,-3.96875 z m 0,0"
       id="path10" />
    <path
       style="fill:#257b76;fill-opacity:1;fill-rule:nonzero;stroke:none"
       d="m 31.75,17.699219 c 0.730469,0 1.324219,0.589843 1.324219,1.320312 v 26.460938 c 0,0.730469 -0.59375,1.320312 -1.324219,1.320312 -0.730469,0 -1.324219,-0.589843 -1.324219,-1.320312 V 19.019531 c 0,-0.730469 0.59375,-1.320312 1.324219,-1.320312 z m 0,0"
       id="path12" />
    <path
       style="fill:#257b76;fill-opacity:1;fill-rule:nonzero;stroke:none"
       d="m 41.011719,17.699219 c 0.730469,0 1.320312,0.589843 1.320312,1.320312 v 26.460938 c 0,0.730469 -0.589843,1.320312 -1.320312,1.320312 -0.730469,0 -1.324219,-0.589843 -1.324219,-1.320312 V 19.019531 c 0,-0.730469 0.59375,-1.320312 1.324219,-1.320312 z m 0,0"
       id="path14" />
    <path
       style="fill:#733447;fill-opacity:1;fill-rule:nonzero;stroke:none"
       d="m 41.011719,24.3125 c 0.730469,0 1.320312,0.59375 1.320312,1.324219 v 19.84375 c 0,0.730469 -0.589843,1.320312 -1.320312,1.320312 -0.730469,0 -1.324219,-0.589843 -1.324219,-1.320312 v -19.84375 c 0,-0.730469 0.59375,-1.324219 1.324219,-1.324219 z m 0,0"
       id="path16" />
    <path
       style="fill:#2e3436;fill-opacity:1;fill-rule:nonzero;stroke:none"
       d="m 41.011719,20.34375 c 2.191406,0 3.96875,1.777344 3.96875,3.96875 0,2.191406 -1.777344,3.96875 -3.96875,3.96875 -2.191407,0 -3.96875,-1.777344 -3.96875,-3.96875 0,-2.191406 1.777343,-3.96875 3.96875,-3.96875 z m 0,0"
       id="path18" />
    <path
       style="fill:#733447;fill-opacity:1;fill-rule:nonzero;stroke:none"
       d="m 31.75,37.542969 c 0.730469,0 1.324219,0.589843 1.324219,1.320312 v 6.617188 c 0,0.730469 -0.59375,1.320312 -1.324219,1.320312 -0.730469,0 -1.324219,-0.589843 -1.324219,-1.320312 v -6.617188 c 0,-0.730469 0.59375,-1.320312 1.324219,-1.320312 z m 0,0"
       id="path20" />
    <path
       style="fill:#2e3436;fill-opacity:1;fill-rule:nonzero;stroke:none"
       d="m 31.75,36.21875 c 2.191406,0 3.96875,1.777344 3.96875,3.96875 0,2.191406 -1.777344,3.96875 -3.96875,3.96875 -2.191406,0 -3.96875,-1.777344 -3.96875,-3.96875 0,-2.191406 1.777344,-3.96875 3.96875,-3.96875 z m 0,0"
       id="path22" />
  </g>
</svg>

<?xml version="1.0" encoding="UTF-8"?>
<svg xmlns="http://www.w3.org/2000/svg" xmlns:xlink="http://www.w3.org/1999/xlink" width="64px" height="64px" viewBox="0 0 64 64" version="1.1">
<g id="surface1">
<path style="fill-rule:nonzero;fill:rgb(61.960787%,61.960787%,61.960787%);fill-opacity:1;stroke-width:0.264583;stroke-linecap:round;stroke-linejoin:round;stroke:rgb(96.078432%,96.078432%,96.078432%);stroke-opacity:1;stroke-miterlimit:4;" d="M 80.125 -112.0625 C 58.59375 -88 42.59375 -60.03125 32.71875 -30.125 L 84.65625 21.84375 L 84.65625 64.15625 L 32.8125 116 C 37.75 130.8125 44.25 145.34375 52.375 159.40625 C 60.46875 173.46875 69.8125 186.375 80.1875 198.03125 L 151 179.0625 L 187.65625 200.21875 L 206.6875 271.1875 C 237.53125 277.59375 269.75 277.75 301.34375 271.125 L 320.34375 200.21875 L 357 179.0625 L 427.875 198.0625 C 449.40625 174 465.40625 146.03125 475.28125 116.125 L 423.34375 64.15625 L 423.34375 21.84375 L 475.1875 -30 C 470.25 -44.8125 463.75 -59.34375 455.625 -73.40625 C 447.53125 -87.46875 438.1875 -100.375 427.8125 -112.03125 L 357 -93.0625 L 320.34375 -114.21875 L 301.3125 -185.1875 C 270.46875 -191.59375 238.25 -191.75 206.65625 -185.125 L 187.65625 -114.21875 L 151 -93.0625 Z M 80.125 -112.0625 " transform="matrix(0.125,0,0,0.125,0,26.875)"/>
<path style=" stroke:none;fill-rule:nonzero;fill:rgb(74.117649%,74.117649%,74.117649%);fill-opacity:1;" d="M 31.75 11.082031 C 43.441406 11.082031 52.917969 20.558594 52.917969 32.25 C 52.917969 43.941406 43.441406 53.417969 31.75 53.417969 C 20.058594 53.417969 10.582031 43.941406 10.582031 32.25 C 10.582031 20.558594 20.058594 11.082031 31.75 11.082031 Z M 31.75 11.082031 "/>
<path style=" stroke:none;fill-rule:nonzero;fill:rgb(14.901961%,65.098041%,60.392159%);fill-opacity:1;" d="M 22.488281 17.699219 C 23.21875 17.699219 23.8125 18.289062 23.8125 19.019531 L 23.8125 45.480469 C 23.8125 46.210938 23.21875 46.800781 22.488281 46.800781 C 21.757812 46.800781 21.167969 46.210938 21.167969 45.480469 L 21.167969 19.019531 C 21.167969 18.289062 21.757812 17.699219 22.488281 17.699219 Z M 22.488281 17.699219 "/>
<path style=" stroke:none;fill-rule:nonzero;fill:rgb(25.882354%,25.882354%,25.882354%);fill-opacity:1;" d="M 22.488281 32.25 C 23.21875 32.25 23.8125 32.84375 23.8125 33.574219 L 23.8125 45.480469 C 23.8125 46.210938 23.21875 46.800781 22.488281 46.800781 C 21.757812 46.800781 21.167969 46.210938 21.167969 45.480469 L 21.167969 33.574219 C 21.167969 32.84375 21.757812 32.25 22.488281 32.25 Z M 22.488281 32.25 "/>
<path style=" stroke:none;fill-rule:nonzero;fill:rgb(93.333334%,93.333334%,93.333334%);fill-opacity:1;" d="M 22.488281 28.28125 C 24.679688 28.28125 26.457031 30.058594 26.457031 32.25 C 26.457031 34.441406 24.679688 36.21875 22.488281 36.21875 C 20.296875 36.21875 18.519531 34.441406 18.519531 32.25 C 18.519531 30.058594 20.296875 28.28125 22.488281 28.28125 Z M 22.488281 28.28125 "/>
<path style=" stroke:none;fill-rule:nonzero;fill:rgb(14.901961%,65.098041%,60.392159%);fill-opacity:1;" d="M 31.75 17.699219 C 32.480469 17.699219 33.074219 18.289062 33.074219 19.019531 L 33.074219 45.480469 C 33.074219 46.210938 32.480469 46.800781 31.75 46.800781 C 31.019531 46.800781 30.425781 46.210938 30.425781 45.480469 L 30.425781 19.019531 C 30.425781 18.289062 31.019531 17.699219 31.75 17.699219 Z M 31.75 17.699219 "/>
<path style=" stroke:none;fill-rule:nonzero;fill:rgb(14.901961%,65.098041%,60.392159%);fill-opacity:1;" d="M 41.011719 17.699219 C 41.742188 17.699219 42.332031 18.289062 42.332031 19.019531 L 42.332031 45.480469 C 42.332031 46.210938 41.742188 46.800781 41.011719 46.800781 C 40.28125 46.800781 39.6875 46.210938 39.6875 45.480469 L 39.6875 19.019531 C 39.6875 18.289062 40.28125 17.699219 41.011719 17.699219 Z M 41.011719 17.699219 "/>
<path style=" stroke:none;fill-rule:nonzero;fill:rgb(25.882354%,25.882354%,25.882354%);fill-opacity:1;" d="M 41.011719 24.3125 C 41.742188 24.3125 42.332031 24.90625 42.332031 25.636719 L 42.332031 45.480469 C 42.332031 46.210938 41.742188 46.800781 41.011719 46.800781 C 40.28125 46.800781 39.6875 46.210938 39.6875 45.480469 L 39.6875 25.636719 C 39.6875 24.90625 40.28125 24.3125 41.011719 24.3125 Z M 41.011719 24.3125 "/>
<path style=" stroke:none;fill-rule:nonzero;fill:rgb(93.333334%,93.333334%,93.333334%);fill-opacity:1;" d="M 41.011719 20.34375 C 43.203125 20.34375 44.980469 22.121094 44.980469 24.3125 C 44.980469 26.503906 43.203125 28.28125 41.011719 28.28125 C 38.820312 28.28125 37.042969 26.503906 37.042969 24.3125 C 37.042969 22.121094 38.820312 20.34375 41.011719 20.34375 Z M 41.011719 20.34375 "/>
<path style=" stroke:none;fill-rule:nonzero;fill:rgb(25.882354%,25.882354%,25.882354%);fill-opacity:1;" d="M 31.75 37.542969 C 32.480469 37.542969 33.074219 38.132812 33.074219 38.863281 L 33.074219 45.480469 C 33.074219 46.210938 32.480469 46.800781 31.75 46.800781 C 31.019531 46.800781 30.425781 46.210938 30.425781 45.480469 L 30.425781 38.863281 C 30.425781 38.132812 31.019531 37.542969 31.75 37.542969 Z M 31.75 37.542969 "/>
<path style=" stroke:none;fill-rule:nonzero;fill:rgb(93.333334%,93.333334%,93.333334%);fill-opacity:1;" d="M 31.75 36.21875 C 33.941406 36.21875 35.71875 37.996094 35.71875 40.1875 C 35.71875 42.378906 33.941406 44.15625 31.75 44.15625 C 29.558594 44.15625 27.78125 42.378906 27.78125 40.1875 C 27.78125 37.996094 29.558594 36.21875 31.75 36.21875 Z M 31.75 36.21875 "/>
</g>
</svg>
